src/components/assets/step3.svg

<svg fill="none" height="112" viewBox="0 0 144 112" width="144" xmlns="http://www.w3.org/2000/svg" xmlns:xlink="http://www.w3.org/1999/xlink"><filter id="a" color-interpolation-filters="sRGB" filterUnits="userSpaceOnUse" height="54" width="144" x="0" y="58"><feFlood flood-opacity="0" result="BackgroundImageFix"/><feBlend in="SourceGraphic" in2="BackgroundImageFix" mode="normal" result="shape"/><feGaussianBlur result="effect1_foregroundBlur" stdDeviation="3"/></filter><filter id="b" color-interpolation-filters="sRGB" filterUnits="userSpaceOnUse" height="54" width="144" x="0" y="29"><feFlood flood-opacity="0" result="BackgroundImageFix"/><feBlend in="SourceGraphic" in2="BackgroundImageFix" mode="normal" result="shape"/><feGaussianBlur result="effect1_foregroundBlur" stdDeviation="3"/></filter><filter id="c" color-interpolation-filters="sRGB" filterUnits="userSpaceOnUse" height="54" width="144" x="0" y="0"><feFlood flood-opacity="0" result="BackgroundImageFix"/><feBlend in="SourceGraphic" in2="BackgroundImageFix" mode="normal" result="shape"/><feGaussianBlur result="effect1_foregroundBlur" stdDeviation="3"/></filter><linearGradient id="d"><stop offset="0" stop-color="#ff8989"/><stop offset="1" stop-color="#ffb170"/></linearGradient><linearGradient id="e" gradientUnits="userSpaceOnUse" x1="92.7402" x2="52.2836" xlink:href="#d" y1="46.2691" y2="84.9665"/><linearGradient id="f" gradientUnits="userSpaceOnUse" x1="92.7402" x2="52.2837" xlink:href="#d" y1="36.2779" y2="74.9753"/><linearGradient id="g"><stop offset="0" stop-color="#ff8989"/><stop offset="1" stop-color="#ff9172" stop-opacity="0"/></linearGradient><linearGradient id="h" gradientUnits="userSpaceOnUse" x1="93.5" x2="93.7758" xlink:href="#g" y1="88.5" y2="67.6425"/><linearGradient id="i" gradientUnits="userSpaceOnUse" x1="63" x2="63.9137" xlink:href="#g" y1="65.5" y2="41.4721"/><linearGradient id="j" gradientUnits="userSpaceOnUse" x1="94.5" x2="74.9895" y1="46" y2="-11.0798"><stop offset="0" stop-color="#ffb691"/><stop offset=".8375" stop-color="#ff9172" stop-opacity="0"/></linearGradient><g clip-rule="evenodd" fill-rule="evenodd"><path d="m79.5541 61.6807c.0031-.0019.0065-.0037.0097-.0056.0006-.0003.0009-.0005.0014-.0008.0012-.0005.0022-.0012.0031-.0017-.0057.0032-.0103.0057-.0142.0081z" fill="#2b2c2a"/><path d="m79.5541 61.6807c.0031-.0019.0065-.0037.0097-.0056.0006-.0003.0009-.0005.0014-.0008.0012-.0005.0022-.0012.0031-.0017-.0057.0032-.0103.0057-.0142.0081z" stroke="#f8f2e6" stroke-linecap="round" stroke-linejoin="round" stroke-width=".8"/><path d="m79.5733 61.6693c.0005-.0003.001-.0005.0015-.0008.01-.0059.0154-.0089.0172-.01.0006-.0002.0007-.0004.0009-.0004-.0073.0042-.014.008-.0196.0112z" fill="#2b2c2a"/><path d="m79.5733 61.6693c.0005-.0003.001-.0005.0015-.0008.01-.0059.0154-.0089.0172-.01.0006-.0002.0007-.0004.0009-.0004-.0073.0042-.014.008-.0196.0112z" stroke="#f8f2e6" stroke-linecap="round" stroke-linejoin="round" stroke-width=".8"/><path d="m69.8027 89.3385c2.9795-1.6834 25.98-14.6795 29.396-16.6097l.0014-11.0742c-3.6247 2.048-25.7731 14.5627-29.3961 16.6096-2.8352-1.6014-16.7539-9.4639-19.6006-11.0719l.0013-11.0743c3.7531-2.1204 15.8517-8.9565 19.5988-11.0737 12.0446 6.8096 7.5313 4.259 19.5963 11.0743l.0014-11.0741c-2.8354-1.6016-16.754-9.4639-19.6007-11.0721-3.1415 1.775-26.3439 14.8852-29.396 16.6096.0037 13.61.0033 8.5896.0018 22.1461 22.6692 12.8055 6.8189 3.8567 29.3964 16.6104z" stroke="#f9fafc" stroke-linecap="round" stroke-linejoin="round" stroke-width="1.5"/><path d="m80.0712 61.7027c.0028-.0017.0059-.0034.0089-.0051.0005-.0003.0008-.0005.0013-.0008.0011-.0005.002-.0011.0028-.0015-.0052.0029-.0094.0052-.013.0074z" fill="#2b2c2a"/><path d="m80.0712 61.7027c.0028-.0017.0059-.0034.0089-.0051.0005-.0003.0008-.0005.0013-.0008.0011-.0005.002-.0011.0028-.0015-.0052.0029-.0094.0052-.013.0074z" stroke="#f8f2e6" stroke-linecap="round" stroke-linejoin="round" stroke-width=".8"/><path d="m80.0885 61.6928c.0005-.0003.0009-.0005.0014-.0008.0094-.0055.0146-.0083.0163-.0094.0005-.0002.0007-.0003.0008-.0003-.0069.0039-.0133.0075-.0185.0105z" fill="#2b2c2a"/><path d="m80.0885 61.6928c.0005-.0003.0009-.0005.0014-.0008.0094-.0055.0146-.0083.0163-.0094.0005-.0002.0007-.0003.0008-.0003-.0069.0039-.0133.0075-.0185.0105z" stroke="#f8f2e6" stroke-linecap="round" stroke-linejoin="round" stroke-width=".8"/><path d="m88.9539 56.6844c-7.0374 3.9764-8.568 4.8411-8.8448 4.9977.0001-.0002-.0002.0002-.0013.0005-.0026.0015-.0096.0056-.0178.0103-.0023.0012-.0049.0027-.0075.0041-.0006.0002-.0009.0005-.0014.0008-.0056.0033-.0126.0072-.0207.0117-.0007.0003-.0012.0007-.0016.001-.0007.0004-.0012.0007-.0017.0009-.0039.0022-.0032.0018 0 0 .0003-.0002.001-.0005.0017-.0009.0002-.0002.0004-.0003.0006-.0005-.2627.1485-1.7611.995-8.7877 4.9653-10.8839-6.1534-7.2497-4.0994-17.68-9.9914 3.3804-1.91 14.3071-8.084 17.6821-9.9909 10.9234 6.1757 6.7582 3.8217 17.6801 9.9914zm-44.2034-14.986c-.0014 23.9293.0038 7.9637.001 29.9716 20.4523 11.5532 6.1518 3.4796 26.5213 14.9857 2.6889-1.5187 23.4397-13.2436 26.5224-14.9857.0013-23.9293-.004-7.9637-.0012-29.9716-20.619-11.6469-6.2833-3.5539-26.5212-14.9858-18.1361 10.2472-11.4077 6.4455-26.5223 14.9858z" stroke="#f8f2e6" stroke-linecap="round" stroke-linejoin="round" stroke-width=".8"/><path d="m71.2733 86.6557c2.6882-1.5187 23.4395-13.244 26.5215-14.9854l.0012-9.9913c-3.2702 1.8478-23.2528 13.1387-26.5214 14.9854-2.558-1.4448-15.1157-8.5384-17.684-9.9892l.0013-9.9913c3.3861-1.9131 14.3015-8.0807 17.6821-9.9908 10.8668 6.1436 6.7949 3.8425 17.6801 9.9913l.0012-9.9912c-2.5581-1.4449-15.1156-8.5384-17.6839-9.9894-2.8343 1.6015-23.7678 13.4296-26.5214 14.9854.0033 12.2791.003 7.7496.0016 19.9804 20.4524 11.5533 6.1521 3.4796 26.5217 14.9861z" fill="url(#e)" fill-opacity=".7"/><path d="m71.2733 86.6557c2.6882-1.5187 23.4395-13.244 26.5215-14.9854l.0012-9.9913c-3.2702 1.8478-23.2528 13.1387-26.5214 14.9854-2.558-1.4448-15.1157-8.5384-17.684-9.9892l.0013-9.9913c3.386-1.9131 14.3015-8.0807 17.6821-9.9908 10.8668 6.1436 6.7949 3.8425 17.6801 9.9913l.0012-9.9912c-2.5581-1.4449-15.1156-8.5384-17.6839-9.9894-2.8343 1.6015-23.7678 13.4296-26.5214 14.9854.0033 12.2791.003 7.7496.0016 19.9804 20.4524 11.5533 6.1521 3.4796 26.5217 14.9861z" stroke="#ff8a8a"/><path d="m71.2714 36.7038c2.558 1.445 15.1156 8.5386 17.6839 9.9894l-.0012 9.9912c-18.158 10.2598.4811-.2718-17.6822 9.9909-10.8641-6.1422-6.8563-3.8771-17.68-9.9914l-.0013 9.9913c2.5582 1.4449 15.1157 8.5384 17.684 9.9892 3.2691-1.8471 23.2526-13.1383 26.5214-14.9854-.0033-12.2789-.003-7.7496-.0016-19.9802-20.6194-11.6477-6.2835-3.554-26.5218-14.9862-18.1359 10.2474-11.4073 6.4455-26.5214 14.9855l-.0012 9.9911c2.7289-1.5419 23.8994-13.5038 26.5214-14.9854z" fill="url(#f)" fill-opacity=".4"/><path d="m71.2714 36.7038c2.558 1.445 15.1156 8.5386 17.6839 9.9894l-.0012 9.9912c-18.158 10.2598.4811-.2718-17.6822 9.9909-10.8641-6.1422-6.8563-3.8771-17.68-9.9914l-.0013 9.9913c2.5582 1.4449 15.1157 8.5384 17.684 9.9892 3.2691-1.8471 23.2526-13.1383 26.5214-14.9854-.0033-12.2789-.003-7.7496-.0016-19.9802-20.6194-11.6477-6.2835-3.554-26.5218-14.9862-18.1359 10.2474-11.4073 6.4455-26.5214 14.9855l-.0012 9.9911c2.7289-1.5419 23.8994-13.5038 26.5214-14.9854z" stroke="#ff8a8a"/></g><path d="m137.25 85c0 2.5559-1.629 5.1233-4.887 7.5748-3.246 2.4419-7.991 4.6729-13.921 6.5597-11.852 3.7715-28.2719 6.1155-46.442 6.1155s-34.5898-2.344-46.4416-6.1155c-5.9303-1.8868-10.6749-4.1178-13.9209-6.5597-3.25881-2.4515-4.8875-5.0189-4.8875-7.5748s1.62869-5.1233 4.8875-7.5748c3.246-2.4419 7.9906-4.6728 13.9209-6.5597 11.8518-3.7711 28.2715-6.1155 46.4416-6.1155s34.59 2.3444 46.442 6.1155c5.93 1.8869 10.675 4.1178 13.921 6.5597 3.258 2.4515 4.887 5.0189 4.887 7.5748z" opacity=".6" stroke="url(#h)" stroke-width="1.5"/><g filter="url(#a)" opacity=".6"><path d="m137.25 85c0 2.5559-1.629 5.1233-4.887 7.5748-3.246 2.4419-7.991 4.6729-13.921 6.5597-11.852 3.7715-28.2719 6.1155-46.442 6.1155s-34.5898-2.344-46.4416-6.1155c-5.9303-1.8868-10.6749-4.1178-13.9209-6.5597-3.25881-2.4515-4.8875-5.0189-4.8875-7.5748s1.62869-5.1233 4.8875-7.5748c3.246-2.4419 7.9906-4.6728 13.9209-6.5597 11.8518-3.7711 28.2715-6.1155 46.4416-6.1155s34.59 2.3444 46.442 6.1155c5.93 1.8869 10.675 4.1178 13.921 6.5597 3.258 2.4515 4.887 5.0189 4.887 7.5748z" stroke="url(#h)" stroke-width="1.5"/></g><path d="m137.25 56c0 2.5559-1.629 5.1233-4.887 7.5748-3.246 2.4419-7.991 4.6729-13.921 6.5597-11.852 3.7711-28.2719 6.1155-46.442 6.1155s-34.5898-2.3444-46.4416-6.1155c-5.9303-1.8868-10.6749-4.1178-13.9209-6.5597-3.25881-2.4515-4.8875-5.0189-4.8875-7.5748s1.62869-5.1233 4.8875-7.5748c3.246-2.4419 7.9906-4.6728 13.9209-6.5597 11.8518-3.7711 28.2715-6.1155 46.4416-6.1155s34.59 2.3444 46.442 6.1155c5.93 1.8869 10.675 4.1178 13.921 6.5597 3.258 2.4515 4.887 5.0189 4.887 7.5748z" opacity=".7" stroke="url(#i)" stroke-width="1.5"/><g filter="url(#b)" opacity=".7"><path d="m137.25 56c0 2.5559-1.629 5.1233-4.887 7.5748-3.246 2.4419-7.991 4.6729-13.921 6.5597-11.852 3.7711-28.2719 6.1155-46.442 6.1155s-34.5898-2.3444-46.4416-6.1155c-5.9303-1.8868-10.6749-4.1178-13.9209-6.5597-3.25881-2.4515-4.8875-5.0189-4.8875-7.5748s1.62869-5.1233 4.8875-7.5748c3.246-2.4419 7.9906-4.6728 13.9209-6.5597 11.8518-3.7711 28.2715-6.1155 46.4416-6.1155s34.59 2.3444 46.442 6.1155c5.93 1.8869 10.675 4.1178 13.921 6.5597 3.258 2.4515 4.887 5.0189 4.887 7.5748z" stroke="url(#i)" stroke-width="1.5"/></g><path d="m137.25 27c0 2.5559-1.629 5.1233-4.887 7.5748-3.246 2.4419-7.991 4.6729-13.921 6.5597-11.852 3.7711-28.2719 6.1155-46.442 6.1155s-34.5898-2.3444-46.4416-6.1155c-5.9303-1.8868-10.6749-4.1178-13.9209-6.5597-3.25881-2.4515-4.8875-5.0189-4.8875-7.5748s1.62869-5.1233 4.8875-7.5748c3.246-2.4419 7.9906-4.6728 13.9209-6.5597 11.8518-3.7711 28.2715-6.1155 46.4416-6.1155s34.59 2.3444 46.442 6.1155c5.93 1.8869 10.675 4.1178 13.921 6.5597 3.258 2.4515 4.887 5.0189 4.887 7.5748z" opacity=".8" stroke="url(#j)" stroke-width="1.5"/><g filter="url(#c)" opacity=".8"><path d="m137.25 27c0 2.5559-1.629 5.1233-4.887 7.5748-3.246 2.4419-7.991 4.6729-13.921 6.5597-11.852 3.7711-28.2719 6.1155-46.442 6.1155s-34.5898-2.3444-46.4416-6.1155c-5.9303-1.8868-10.6749-4.1178-13.9209-6.5597-3.25881-2.4515-4.8875-5.0189-4.8875-7.5748s1.62869-5.1233 4.8875-7.5748c3.246-2.4419 7.9906-4.6728 13.9209-6.5597 11.8518-3.7711 28.2715-6.1155 46.4416-6.1155s34.59 2.3444 46.442 6.1155c5.93 1.8869 10.675 4.1178 13.921 6.5597 3.258 2.4515 4.887 5.0189 4.887 7.5748z" stroke="url(#j)" stroke-width="1.5"/></g></svg>

<svg width="144" height="112" viewBox="0 0 144 112" fill="none" xmlns="http://www.w3.org/2000/svg">
<path fill-rule="evenodd" clip-rule="evenodd" d="M79.5541 61.6807C79.5572 61.6788 79.5606 61.677 79.5638 61.6751C79.5644 61.6748 79.5647 61.6746 79.5652 61.6743C79.5664 61.6738 79.5674 61.6731 79.5683 61.6726C79.5626 61.6758 79.558 61.6783 79.5541 61.6807Z" fill="#2B2C2A"/>
<path fill-rule="evenodd" clip-rule="evenodd" d="M79.5541 61.6807C79.5572 61.6788 79.5606 61.677 79.5638 61.6751C79.5644 61.6748 79.5647 61.6746 79.5652 61.6743C79.5664 61.6738 79.5674 61.6731 79.5683 61.6726C79.5626 61.6758 79.558 61.6783 79.5541 61.6807Z" stroke="#F8F2E6" stroke-width="0.8" stroke-linecap="round" stroke-linejoin="round"/>
<path fill-rule="evenodd" clip-rule="evenodd" d="M79.5733 61.6693C79.5738 61.669 79.5743 61.6688 79.5748 61.6685C79.5848 61.6626 79.5902 61.6596 79.592 61.6585C79.5926 61.6583 79.5927 61.6581 79.5929 61.6581C79.5856 61.6623 79.5789 61.6661 79.5733 61.6693Z" fill="#2B2C2A"/>
<path fill-rule="evenodd" clip-rule="evenodd" d="M79.5733 61.6693C79.5738 61.669 79.5743 61.6688 79.5748 61.6685C79.5848 61.6626 79.5902 61.6596 79.592 61.6585C79.5926 61.6583 79.5927 61.6581 79.5929 61.6581C79.5856 61.6623 79.5789 61.6661 79.5733 61.6693Z" stroke="#F8F2E6" stroke-width="0.8" stroke-linecap="round" stroke-linejoin="round"/>
<path fill-rule="evenodd" clip-rule="evenodd" d="M69.8027 89.3385C72.7822 87.6551 95.7827 74.659 99.1987 72.7288L99.2001 61.6546C95.5754 63.7026 73.427 76.2173 69.804 78.2642C66.9688 76.6628 53.0501 68.8003 50.2034 67.1923L50.2047 56.118C53.9578 53.9976 66.0564 47.1615 69.8035 45.0443C81.8481 51.8539 77.3348 49.3033 89.3998 56.1186L89.4012 45.0445C86.5658 43.4429 72.6472 35.5806 69.8005 33.9724C66.659 35.7474 43.4566 48.8576 40.4045 50.582C40.4082 64.192 40.4078 59.1716 40.4063 72.7281C63.0755 85.5336 47.2252 76.5848 69.8027 89.3385Z" stroke="#F9FAFC" stroke-width="1.5" stroke-linecap="round" stroke-linejoin="round"/>
<path fill-rule="evenodd" clip-rule="evenodd" d="M80.0712 61.7027C80.074 61.701 80.0771 61.6993 80.0801 61.6976C80.0806 61.6973 80.0809 61.6971 80.0814 61.6968C80.0825 61.6963 80.0834 61.6957 80.0842 61.6953C80.079 61.6982 80.0748 61.7005 80.0712 61.7027Z" fill="#2B2C2A"/>
<path fill-rule="evenodd" clip-rule="evenodd" d="M80.0712 61.7027C80.074 61.701 80.0771 61.6993 80.0801 61.6976C80.0806 61.6973 80.0809 61.6971 80.0814 61.6968C80.0825 61.6963 80.0834 61.6957 80.0842 61.6953C80.079 61.6982 80.0748 61.7005 80.0712 61.7027Z" stroke="#F8F2E6" stroke-width="0.8" stroke-linecap="round" stroke-linejoin="round"/>
<path fill-rule="evenodd" clip-rule="evenodd" d="M80.0885 61.6928C80.089 61.6925 80.0894 61.6923 80.0899 61.692C80.0993 61.6865 80.1045 61.6837 80.1062 61.6826C80.1067 61.6824 80.1069 61.6823 80.107 61.6823C80.1001 61.6862 80.0937 61.6898 80.0885 61.6928Z" fill="#2B2C2A"/>
<path fill-rule="evenodd" clip-rule="evenodd" d="M80.0885 61.6928C80.089 61.6925 80.0894 61.6923 80.0899 61.692C80.0993 61.6865 80.1045 61.6837 80.1062 61.6826C80.1067 61.6824 80.1069 61.6823 80.107 61.6823C80.1001 61.6862 80.0937 61.6898 80.0885 61.6928Z" stroke="#F8F2E6" stroke-width="0.8" stroke-linecap="round" stroke-linejoin="round"/>
<path fill-rule="evenodd" clip-rule="evenodd" d="M88.9539 56.6844C81.9165 60.6608 80.3859 61.5255 80.1091 61.6821C80.1092 61.6819 80.1089 61.6823 80.1078 61.6826C80.1052 61.6841 80.0982 61.6882 80.09 61.6929C80.0877 61.6941 80.0851 61.6956 80.0825 61.697C80.0819 61.6972 80.0816 61.6975 80.0811 61.6978C80.0755 61.7011 80.0685 61.705 80.0604 61.7095C80.0597 61.7098 80.0592 61.7102 80.0588 61.7105C80.0581 61.7109 80.0576 61.7112 80.0571 61.7114C80.0532 61.7136 80.0539 61.7132 80.0571 61.7114C80.0574 61.7112 80.0581 61.7109 80.0588 61.7105C80.059 61.7103 80.0592 61.7102 80.0594 61.71C79.7967 61.8585 78.2983 62.705 71.2717 66.6753C60.3878 60.5219 64.022 62.5759 53.5917 56.6839C56.9721 54.7739 67.8988 48.5999 71.2738 46.693C82.1972 52.8687 78.032 50.5147 88.9539 56.6844ZM44.7505 41.6984C44.7491 65.6277 44.7543 49.6621 44.7515 71.67C65.2038 83.2232 50.9033 75.1496 71.2728 86.6557C73.9617 85.137 94.7125 73.4121 97.7952 71.67C97.7965 47.7407 97.7912 63.7063 97.794 41.6984C77.175 30.0515 91.5107 38.1445 71.2728 26.7126C53.1367 36.9598 59.8651 33.1581 44.7505 41.6984Z" stroke="#F8F2E6" stroke-width="0.8" stroke-linecap="round" stroke-linejoin="round"/>
<path fill-rule="evenodd" clip-rule="evenodd" d="M71.2733 86.6557C73.9615 85.137 94.7128 73.4117 97.7948 71.6703L97.796 61.679C94.5258 63.5268 74.5432 74.8177 71.2746 76.6644C68.7166 75.2196 56.1589 68.126 53.5906 66.6752L53.5919 56.6839C56.978 54.7708 67.8934 48.6032 71.274 46.6931C82.1408 52.8367 78.0689 50.5356 88.9541 56.6844L88.9553 46.6932C86.3972 45.2483 73.8397 38.1548 71.2714 36.7038C68.4371 38.3053 47.5036 50.1334 44.75 51.6892C44.7533 63.9683 44.753 59.4388 44.7516 71.6696C65.204 83.2229 50.9037 75.1492 71.2733 86.6557Z" fill="url(#paint0_linear)" fill-opacity="0.7"/>
<path fill-rule="evenodd" clip-rule="evenodd" d="M71.2733 86.6557C73.9615 85.137 94.7128 73.4117 97.7948 71.6703L97.796 61.679C94.5258 63.5268 74.5432 74.8177 71.2746 76.6644C68.7166 75.2196 56.1589 68.126 53.5906 66.6752L53.5919 56.6839C56.9779 54.7708 67.8934 48.6032 71.274 46.6931C82.1408 52.8367 78.0689 50.5356 88.9541 56.6844L88.9553 46.6932C86.3972 45.2483 73.8397 38.1548 71.2714 36.7038C68.4371 38.3053 47.5036 50.1334 44.75 51.6892C44.7533 63.9683 44.753 59.4388 44.7516 71.6696C65.204 83.2229 50.9037 75.1492 71.2733 86.6557Z" stroke="#FF8A8A"/>
<path fill-rule="evenodd" clip-rule="evenodd" d="M71.2714 36.7038C73.8294 38.1488 86.387 45.2424 88.9553 46.6932L88.9541 56.6844C70.7961 66.9442 89.4352 56.4126 71.2719 66.6753C60.4078 60.5331 64.4156 62.7982 53.5919 56.6839L53.5906 66.6752C56.1488 68.1201 68.7063 75.2136 71.2746 76.6644C74.5437 74.8173 94.5272 63.5261 97.796 61.679C97.7927 49.4001 97.793 53.9294 97.7944 41.6988C77.175 30.0511 91.5109 38.1448 71.2726 26.7126C53.1367 36.96 59.8653 33.1581 44.7512 41.6981L44.75 51.6892C47.4789 50.1473 68.6494 38.1854 71.2714 36.7038Z" fill="url(#paint1_linear)" fill-opacity="0.4"/>
<path fill-rule="evenodd" clip-rule="evenodd" d="M71.2714 36.7038C73.8294 38.1488 86.387 45.2424 88.9553 46.6932L88.9541 56.6844C70.7961 66.9442 89.4352 56.4126 71.2719 66.6753C60.4078 60.5331 64.4156 62.7982 53.5919 56.6839L53.5906 66.6752C56.1488 68.1201 68.7063 75.2136 71.2746 76.6644C74.5437 74.8173 94.5272 63.5261 97.796 61.679C97.7927 49.4001 97.793 53.9294 97.7944 41.6988C77.175 30.0511 91.5109 38.1448 71.2726 26.7126C53.1367 36.96 59.8653 33.1581 44.7512 41.6981L44.75 51.6892C47.4789 50.1473 68.6494 38.1854 71.2714 36.7038Z" stroke="#FF8A8A"/>
<path opacity="0.6" d="M137.25 85C137.25 87.5559 135.621 90.1233 132.363 92.5748C129.117 95.0167 124.372 97.2477 118.442 99.1345C106.59 102.906 90.1701 105.25 72 105.25C53.8299 105.25 37.4102 102.906 25.5584 99.1345C19.6281 97.2477 14.8835 95.0167 11.6375 92.5748C8.37869 90.1233 6.75 87.5559 6.75 85C6.75 82.4441 8.37869 79.8767 11.6375 77.4252C14.8835 74.9833 19.6281 72.7524 25.5584 70.8655C37.4102 67.0944 53.8299 64.75 72 64.75C90.1701 64.75 106.59 67.0944 118.442 70.8655C124.372 72.7524 129.117 74.9833 132.363 77.4252C135.621 79.8767 137.25 82.4441 137.25 85Z" stroke="url(#paint2_linear)" stroke-width="1.5"/>
<g opacity="0.6" filter="url(#filter0_f)">
<path d="M137.25 85C137.25 87.5559 135.621 90.1233 132.363 92.5748C129.117 95.0167 124.372 97.2477 118.442 99.1345C106.59 102.906 90.1701 105.25 72 105.25C53.8299 105.25 37.4102 102.906 25.5584 99.1345C19.6281 97.2477 14.8835 95.0167 11.6375 92.5748C8.37869 90.1233 6.75 87.5559 6.75 85C6.75 82.4441 8.37869 79.8767 11.6375 77.4252C14.8835 74.9833 19.6281 72.7524 25.5584 70.8655C37.4102 67.0944 53.8299 64.75 72 64.75C90.1701 64.75 106.59 67.0944 118.442 70.8655C124.372 72.7524 129.117 74.9833 132.363 77.4252C135.621 79.8767 137.25 82.4441 137.25 85Z" stroke="url(#paint3_linear)" stroke-width="1.5"/>
</g>
<path opacity="0.7" d="M137.25 56C137.25 58.5559 135.621 61.1233 132.363 63.5748C129.117 66.0167 124.372 68.2477 118.442 70.1345C106.59 73.9056 90.1701 76.25 72 76.25C53.8299 76.25 37.4102 73.9056 25.5584 70.1345C19.6281 68.2477 14.8835 66.0167 11.6375 63.5748C8.37869 61.1233 6.75 58.5559 6.75 56C6.75 53.4441 8.37869 50.8767 11.6375 48.4252C14.8835 45.9833 19.6281 43.7524 25.5584 41.8655C37.4102 38.0944 53.8299 35.75 72 35.75C90.1701 35.75 106.59 38.0944 118.442 41.8655C124.372 43.7524 129.117 45.9833 132.363 48.4252C135.621 50.8767 137.25 53.4441 137.25 56Z" stroke="url(#paint4_linear)" stroke-width="1.5"/>
<g opacity="0.7" filter="url(#filter1_f)">
<path d="M137.25 56C137.25 58.5559 135.621 61.1233 132.363 63.5748C129.117 66.0167 124.372 68.2477 118.442 70.1345C106.59 73.9056 90.1701 76.25 72 76.25C53.8299 76.25 37.4102 73.9056 25.5584 70.1345C19.6281 68.2477 14.8835 66.0167 11.6375 63.5748C8.37869 61.1233 6.75 58.5559 6.75 56C6.75 53.4441 8.37869 50.8767 11.6375 48.4252C14.8835 45.9833 19.6281 43.7524 25.5584 41.8655C37.4102 38.0944 53.8299 35.75 72 35.75C90.1701 35.75 106.59 38.0944 118.442 41.8655C124.372 43.7524 129.117 45.9833 132.363 48.4252C135.621 50.8767 137.25 53.4441 137.25 56Z" stroke="url(#paint5_linear)" stroke-width="1.5"/>
</g>
<path opacity="0.8" d="M137.25 27C137.25 29.5559 135.621 32.1233 132.363 34.5748C129.117 37.0167 124.372 39.2477 118.442 41.1345C106.59 44.9056 90.1701 47.25 72 47.25C53.8299 47.25 37.4102 44.9056 25.5584 41.1345C19.6281 39.2477 14.8835 37.0167 11.6375 34.5748C8.37869 32.1233 6.75 29.5559 6.75 27C6.75 24.4441 8.37869 21.8767 11.6375 19.4252C14.8835 16.9833 19.6281 14.7524 25.5584 12.8655C37.4102 9.0944 53.8299 6.75 72 6.75C90.1701 6.75 106.59 9.0944 118.442 12.8655C124.372 14.7524 129.117 16.9833 132.363 19.4252C135.621 21.8767 137.25 24.4441 137.25 27Z" stroke="url(#paint6_linear)" stroke-width="1.5"/>
<g opacity="0.8" filter="url(#filter2_f)">
<path d="M137.25 27C137.25 29.5559 135.621 32.1233 132.363 34.5748C129.117 37.0167 124.372 39.2477 118.442 41.1345C106.59 44.9056 90.1701 47.25 72 47.25C53.8299 47.25 37.4102 44.9056 25.5584 41.1345C19.6281 39.2477 14.8835 37.0167 11.6375 34.5748C8.37869 32.1233 6.75 29.5559 6.75 27C6.75 24.4441 8.37869 21.8767 11.6375 19.4252C14.8835 16.9833 19.6281 14.7524 25.5584 12.8655C37.4102 9.0944 53.8299 6.75 72 6.75C90.1701 6.75 106.59 9.0944 118.442 12.8655C124.372 14.7524 129.117 16.9833 132.363 19.4252C135.621 21.8767 137.25 24.4441 137.25 27Z" stroke="url(#paint7_linear)" stroke-width="1.5"/>
</g>
<defs>
<filter id="filter0_f" x="0" y="58" width="144" height="54" filterUnits="userSpaceOnUse" color-interpolation-filters="sRGB">
<feFlood flood-opacity="0" result="BackgroundImageFix"/>
<feBlend mode="normal" in="SourceGraphic" in2="BackgroundImageFix" result="shape"/>
<feGaussianBlur stdDeviation="3" result="effect1_foregroundBlur"/>
</filter>
<filter id="filter1_f" x="0" y="29" width="144" height="54" filterUnits="userSpaceOnUse" color-interpolation-filters="sRGB">
<feFlood flood-opacity="0" result="BackgroundImageFix"/>
<feBlend mode="normal" in="SourceGraphic" in2="BackgroundImageFix" result="shape"/>
<feGaussianBlur stdDeviation="3" result="effect1_foregroundBlur"/>
</filter>
<filter id="filter2_f" x="0" y="0" width="144" height="54" filterUnits="userSpaceOnUse" color-interpolation-filters="sRGB">
<feFlood flood-opacity="0" result="BackgroundImageFix"/>
<feBlend mode="normal" in="SourceGraphic" in2="BackgroundImageFix" result="shape"/>
<feGaussianBlur stdDeviation="3" result="effect1_foregroundBlur"/>
</filter>
<linearGradient id="paint0_linear" x1="92.7402" y1="46.2691" x2="52.2836" y2="84.9665" gradientUnits="userSpaceOnUse">
<stop stop-color="#FF8989"/>
<stop offset="1" stop-color="#FFB170"/>
</linearGradient>
<linearGradient id="paint1_linear" x1="92.7402" y1="36.2779" x2="52.2837" y2="74.9753" gradientUnits="userSpaceOnUse">
<stop stop-color="#FF8989"/>
<stop offset="1" stop-color="#FFB170"/>
</linearGradient>
<linearGradient id="paint2_linear" x1="93.5" y1="88.5" x2="93.7758" y2="67.6425" gradientUnits="userSpaceOnUse">
<stop stop-color="#FF8989"/>
<stop offset="1" stop-color="#FF9172" stop-opacity="0"/>
</linearGradient>
<linearGradient id="paint3_linear" x1="93.5" y1="88.5" x2="93.7758" y2="67.6425" gradientUnits="userSpaceOnUse">
<stop stop-color="#FF8989"/>
<stop offset="1" stop-color="#FF9172" stop-opacity="0"/>
</linearGradient>
<linearGradient id="paint4_linear" x1="63" y1="65.5" x2="63.9137" y2="41.4721" gradientUnits="userSpaceOnUse">
<stop stop-color="#FF8989"/>
<stop offset="1" stop-color="#FF9172" stop-opacity="0"/>
</linearGradient>
<linearGradient id="paint5_linear" x1="63" y1="65.5" x2="63.9137" y2="41.4721" gradientUnits="userSpaceOnUse">
<stop stop-color="#FF8989"/>
<stop offset="1" stop-color="#FF9172" stop-opacity="0"/>
</linearGradient>
<linearGradient id="paint6_linear" x1="94.5" y1="46" x2="74.9895" y2="-11.0798" gradientUnits="userSpaceOnUse">
<stop stop-color="#FFB691"/>
<stop offset="0.8375" stop-color="#FF9172" stop-opacity="0"/>
</linearGradient>
<linearGradient id="paint7_linear" x1="94.5" y1="46" x2="74.9895" y2="-11.0798" gradientUnits="userSpaceOnUse">
<stop stop-color="#FFB691"/>
<stop offset="0.8375" stop-color="#FF9172" stop-opacity="0"/>
</linearGradient>
</defs>
</svg>
